X:2
T:Beannacht an Imircigh (The Emigrant's Farewell)
S:Danny O'Donnell
D:On tSean - Am Anall
Z:Juergen.Gier@post.rwth-aachen.de
L:1/8
M:C|
K:Bb
FE|D<FB,B A<cFA|Bdfb agfb|geca fcAc|(3Bdc (3BAG F2E2|\
(3DFD B,B (3AcA FA|Bdfb agfb|geca fcAc|~B2d2 B2:|FE|\
DFBF dBFD|EBGB eEGB|Abag fbAc|(3Bdc (3BAG F2E2|\
DFBF dBFD|~E2GB eEGB|Abag fbAc|~B2d2 B2FE|\
DFBF dBFD|EBGB eEGB|Abag fbAc|(3Bdc (3BAG F2E2|\
(3DFB (3dBF (3DFB (3dBF|(3EGB (3eBG (3EGB (3eBG|\
(3ABA ag (3fgf (3edc|B2d2 B2|]
